X:116
T:Trip to Weymouth
M:6/8
L:1/8
B:Thompson's Compleat Collection of 200 Favourite Country Dances, vol. 3 (London, 1773)
Z:Transcribed and edited by Flynn Titford-Mock, 2007
Z:abc's:AK/Fiddler's Companion
K:Bb
g | fdB ecA | FAc EAc | CAB cde | dcB AGF | fdB ecA | FAc EAc | def gab | fed c2 :|
|: c | FAc "tr"c3 | dBd fbf | FAc "tr"c3 | BFE DCB, | Fgf edc | Dfe dcB | FAc Egf | edc B2 :|

